wtyp.svg

<svg height="181pt" viewBox="0 0 181 181" width="181pt" xmlns="http://www.w3.org/2000/svg"><g fill="#bcbcbc"><path d="m80.91 1.55c.66-.05 1.97-.14 2.63-.19 1.56 6.4 2.74 12.9 4.71 19.2.7 1.97 1.37 3.96 2.03 5.94.67 2.16 2.28 4.53 1.12 6.79-3.08 2.88-5.56-1.8-7.38-3.82-4.79 4.07-10.63 7.31-17.04 7.53-4.19-.04-8.58-2.3-10.15-6.36-2.03-4.12.12-8.72 2.75-12 2.7-3.09 6.17-6.05 10.41-6.48 3.27-.13 6 3.48 4.6 6.55-2.21 5.02-7.87 7.36-13.06 7.62.15 1.23.31 2.46.48 3.69 5.2 3.53 11.81.77 16.2-2.78 2.07-1.76 4.92-4.05 4.13-7.11-1.1-6.1-2.74-12.38-1.43-18.58m-18.46 21.09c3.6-.05 6.81-1.88 9.14-4.56-.44-.59-1.31-1.77-1.74-2.36-3.14 1.5-5.65 3.92-7.4 6.92z"/><path d="m90.52 1.32c.92-2.13 2.82-.21 2.72 1.53 1.49 6.68 2.35 13.57 5 19.95 1.17 3.42 3.57 6.68 2.98 10.47-2.29.91-4.88-.04-5.73-2.4-4.31-9.05-7.03-19.58-4.97-29.55z"/><path d="m20.16 7.12c1.26-1.57 3.36-1.75 5.14-2.32l-.99 1.78c.65.04 1.93.13 2.58.17-3.34 6.01-9.48 13.07-5.22 20.16 4.53-.4 7.88-3.47 10.38-7 .67-1.64 3.09-1.18 3.49.37 1.28 3.38 2.63 7.31 6.28 8.8 2.26 1.41 5.45.85 6.98-1.37 2.33-3.2 2.17-7.6.64-11.11-1.02-2.32-3.29-3.69-4.8-5.65-.3-2.8 3.47-3.14 5.21-1.83 4.43 2.91 5.35 8.63 6.65 13.37-.34 1.91-.67 3.81-.97 5.73-2.56 2.89-5.21 6.46-9.42 6.77-5.42.82-9.53-3.39-13.43-6.42-3.17 1.58-6.04 4.07-9.65 4.53-4.09.44-7.86-2.73-8.72-6.64-1.57-6.9 1.07-14.29 5.85-19.34z"/><path d="m151.49 25.53c1.23-.54 2.59-.19 3.76.35 1.91 4.04-4.99 8.7-7.8 5.19-.44-2.63 1.83-4.65 4.04-5.54z"/><path d="m105.29 36.27c.98-.02 1.96-.04 2.95-.06 1.06 3.04 2.06 6.1 2.77 9.24-1.15-.02-2.29-.04-3.43-.06-2.01-2.63-2.83-5.84-2.29-9.12z"/><path d="m114.29 45.76c-1.28-4.6 3.92-7.55 7.71-8.36.32.6.96 1.81 1.28 2.41-1 1.42-2.11 2.77-2.92 4.31 1.57 3.94 6.5 5.31 8.25 9.18.99 2.2-.18 4.87-2.21 6.01-1.88 1.16-4.14.39-6.18.31.07-.49.23-1.47.3-1.97 1.47-1.16 2.93-2.34 4.37-3.56-3.37-2.97-7.89-4.66-10.6-8.33z"/><path d="m40.06 42.44c.59.01 1.76.05 2.35.07 1.98 3.44 3.45 7.15 5.39 10.62 2.91-1.4 6.51-3.45 9.63-1.46 3.63 2.56 3.86 7.51 3.47 11.53.54.28 1.63.85 2.17 1.14 2.21-4.16 2.34-9.87 6.8-12.46 3.04-1.99 8.17.12 7.62 4.12-.15 4.41-5.62 6.55-5.68 10.73 4.26 1.97 9.21-1.3 9.96-5.68.32-4.24-2.17-8.6-.42-12.71.48-1.9 2.66-2.06 4.14-2.8.36 2.48.45 4.99.74 7.48.42 3.04 2.08 5.78 2.42 8.84-.24 1.94-2.24 2.98-3.43 4.35-3.01 3.06-6.46 6.71-11.19 6.23-3.68.03-5.82-3.4-8.97-4.61-2.74-.08-5.46.35-8.19.45-1.29.26-2.87-.99-2.55-2.38.27-3.41 2.78-7.32.22-10.41-1.57-1.89-3.19.72-4.3 1.85-2.58 3 .8 7.18-1.22 10.35-1.26.37-3.06.36-3.53-1.16-1.57-4.57-2.34-9.39-3.73-14.03-.93-3.28-1.38-6.67-1.7-10.06m31.81 13.89c-1.16.82-1.12 1.56.11 2.22 1.16-.83 1.12-1.56-.11-2.22z"/><path d="m147.4 43.94c2.51-4.03 8.39-2.09 10.58 1.3-3.06 2.7-8.25 2.01-10.58-1.3z"/><path d="m30.83 41.59c3.94 3.26 3.31 9.94 8.86 11.54-.89 1.01-1.78 2.02-2.67 3.03-.22 4.92 1.32 9.76.81 14.66-.19 2.21-2.24 2.7-4.07 2.98-1.06-4.83-.8-9.87-2.42-14.6-3.1 1.43-6.17 3.17-9.63 3.5 2.47-3.5 6.61-5.31 9.08-8.75.27-4.13-1.52-8.29.04-12.36z"/><path d="m97.7 43.67c2.1-2.12 6.13-.8 6.37 2.21.94 4.45-1.9 8.23-4.32 11.61 1.66 3.92 5.96 4.11 9.61 4.43-1.88 2.86-5.66 4.27-8.77 2.44-4.16-2.71-5.56-7.89-7.04-12.33 1.03-2.92 2.08-6 4.15-8.36m2.27 4.55c-1.22.73-1.23 1.46-.03 2.21 1.22-.76 1.23-1.5.03-2.21z"/><path d="m147.18 56.32c4.42-.28 9.08 2.49 9.76 7.12-4.54 1.48-10.01-2.22-9.76-7.12z"/><path d="m95.97 82.18c1.24.35 3-.33 3.96.73-.8 1.14-1.95 2-2.69 3.21-.34 2.22-.36 4.48-.58 6.73-.64-.08-1.91-.22-2.55-.3-.46-1.5-.98-2.99-1.25-4.54.08-2.31 1.87-4.04 3.11-5.83z"/><path d="m63.95 84.92c3.81-1.73 8.54-.54 10.9 2.96.59 2.53.01 5.2-2.15 6.79-2.98 3.47-7.77 3.73-12 3.61-.39 4.12-1.63 8.59-5.25 11.04-6 4.22-14.68 5.31-21.12 1.5-1.95-1-1.69-3.38-2.07-5.19 4.19 1.08 8.31 3.09 12.75 2.46 4.19-.23 9.76-2.18 10.26-7.01-.7-4.33-4.49-7.14-7.61-9.81-2.86 3.56-5.11 9.31-10.62 8.84-6.95-.2-8.6-11.61-1.67-13.42.04 2.84-.58 5.75.35 8.52.82-.03 2.45-.1 3.27-.13 2.11-2.57 3.21-5.69 4.49-8.7.54-1.48 1.94-2.21 3.41-1.46 3.58 2.02 6.33 5.21 9.59 7.67 1.53-3.3 3.66-6.77 7.47-7.67m-1.42 7c1.96 4.43 6.44.36 8.23-2.1-2.93-1.49-6.42-.69-8.23 2.1z"/><path d="m85.52 85.19c2.37-.66 5.13 1.07 4.75 3.69-.84 3.13-3.15 6.33-6.48 7.05-2.59.39-4.78-1.55-6.23-3.46-.67-1.58-.08-3.4-.1-5.07 1.26-.22 2.61-1.03 3.84-.23.62 1.47 1.1 3 1.63 4.5.49-.45 1.48-1.36 1.97-1.82.16-1.56.28-3.13.62-4.66z"/><path d="m111.82 115.86c3.36-1.56 6.99-2.51 10.55-3.54l-.03 1.28c.52.08 1.56.25 2.08.33-2.82 3.51-7.14 4.98-11 6.96-.8 5.27-.82 10.7.64 15.87 1.31 1.68 2.49 3.91 4.85 4.21 5.11.89 9.98-1.62 15.06-1.74-3.9 7.15-14.47 10.37-20.95 4.76-5.04-4.54-4.21-11.92-4.05-18.03.46-3.4-.03-7.63 2.85-10.1z"/><path d="m155.49 115.46c.8-2.27 3.49-4.17 5.82-2.79 2.37 1.52 3.17 4.48 3.92 7.03 2.19 9.7 2.7 20.02-.01 29.65-1.02 3.04-5.54 1.86-4.97-1.28 1.13-8.83 2.92-17.95.32-26.7-.37-.61-1.12-1.83-1.49-2.45-.52 1.49-1.01 3-1.48 4.51-1.44 4.32-2.07 8.96-4.17 13.04-1.11 2.28-3.83 2.47-5.98 2.99-2.07 3.23-3.04 9.2-8.07 8.34.54-4.01 2.53-7.7 2.66-11.77.15-3.03.18-6.07-.11-9.09-.3-3.39-2.05-6.87-.12-10.1 4.36 3.08 4.75 8.85 6.71 13.41.5.04 1.49.11 1.98.14 1.53-5.01 2.94-10.1 4.99-14.93z"/><path d="m71.15 117.03c5.07-3.6 14.57-1.68 15.82 5.05.36 2.38-.62 4.66-.96 6.98 2.19 1.23 4.68 1.78 7.11 2.27 2.1-5.5 1.54-11.66 4.09-17.06 1.08 1.32 2.08 2.84 1.9 4.64.05 8.37-.29 16.74.02 25.11.16 1.93.6 4.38 2.63 5.2 3.39 1.22 7.21.07 10.55 1.52 1.2 1.17.6 3.23-.99 3.69-5.83 1.8-12.24.51-17.26-2.86-4.35 2.13-9.52 5.08-14.38 2.69-2.47-2.43-3.32-6.01-4.68-9.11-1.64 5.29-5.05 10.46-10.53 12.3-6.62 2.42-14.44-1.83-16.37-8.54-2.73-6.35 1.42-14.09 7.91-15.99 5.69-2.29 12.02-.06 16.58 3.6.18.49.54 1.48.73 1.98.04-7.23-2.31-14.25-2.17-21.47m2.71 2.14c.45 3.72 1.62 7.43 3.59 10.64 2.02-1.6 3.89-3.36 5.7-5.18.01-1.21.01-2.42.02-3.63-2.64-1.71-6.51-5.02-9.31-1.83m3.69 15.1c.94 5.54 2.24 11.05 4.4 16.25 3.83-.94 8.22-1.94 10.53-5.47 1.11-2.39.29-5 .1-7.48-4.09-3.77-9.84-3.64-15.03-3.3m-25.64 7.82c.58 4.86 3.26 9.73 8.33 10.96 3.91-.74 7.66-3.95 8.19-8.06.47-3.57-2.76-7.05-6.36-6.85-3.87-.44-7.12 1.93-10.16 3.95z"/><path d="m8.05 119.1c7.96-3.65 18.15.69 21.39 8.71 1.33 3.91.99 8.6-1.72 11.86-2.71 3.68-7.17 5.26-11.14 7.15.49 7.78 6.63 14.54 4.95 22.49-1.63-.43-3.68-.6-4.21-2.53-5.31-13.21-8.2-27.26-13.21-40.57-1.13 1.39-2.26 2.77-3.45 4.11-1.44-5.27 2.92-9.47 7.39-11.22m.41 3.15c.78 6.05 3.77 11.47 5.17 17.37 3.45-.5 6.47-2.26 9.5-3.86 1.31-2.37 2.44-5.28.94-7.85-2.72-5.73-9.95-7.1-15.61-5.66z"/><path d="m119.94 130.5 2.64.24c-2.04 1.38-4.21 2.56-6.47 3.55.16-.55.47-1.63.63-2.18 1.07-.53 2.14-1.06 3.2-1.61z"/><path d="m25.85 151.96c1.23-6.13 9.12-12.73 14.93-7.68 4.1 3.92-.35 8.98-2.44 12.66 2.99 2.72 7.52 4.36 8.17 8.88-4.48.45-8.13-2.4-11.76-4.54-.28 2.4-.61 4.9-2.57 6.57-4.42-3.98-5.6-10.27-6.33-15.89m5.29-3.91c-2.52 1.6-.8 4.61.96 6.02 3.07-1.03 5.34-3.49 6.78-6.32-2.19-2.51-5.69-2.2-7.74.3z"/><path d="m107.89 162.38c19.69-1.68 39.4-3.15 59.15-3.63 4.12-.07 8.8-1.7 12.58.52 2.1 1.62.06 3.38-1.83 3.55-5.38.6-10.82-.06-16.21.54-8.09.94-16.28.26-24.35 1.35-26.11 1.32-52.09 4.39-77.99 7.87-8.61 1.53-17.23 3.05-25.74 5.05-4.81 1.15-9.51 3.13-14.55 2.94.49-1.28.58-3.06 2.3-3.23 27.97-9.24 57.53-11.73 86.64-14.96z"/></g></svg>

<?xml version="1.0" encoding="UTF-8" ?>
<!DOCTYPE svg PUBLIC "-//W3C//DTD SVG 1.1//EN" "http://www.w3.org/Graphics/SVG/1.1/DTD/svg11.dtd">
<svg width="181pt" height="181pt" viewBox="0 0 181 181" version="1.1" xmlns="http://www.w3.org/2000/svg">
<g id="#000000ff">
</g>
<g id="#bcbcbcff">
<path fill="#bcbcbc" opacity="1.00" d=" M 80.91 1.55 C 81.57 1.50 82.88 1.41 83.54 1.36 C 85.10 7.76 86.28 14.26 88.25 20.56 C 88.95 22.53 89.62 24.52 90.28 26.50 C 90.95 28.66 92.56 31.03 91.40 33.29 C 88.32 36.17 85.84 31.49 84.02 29.47 C 79.23 33.54 73.39 36.78 66.98 37.00 C 62.79 36.96 58.40 34.70 56.83 30.64 C 54.80 26.52 56.95 21.92 59.58 18.64 C 62.28 15.55 65.75 12.59 69.99 12.16 C 73.26 12.03 75.99 15.64 74.59 18.71 C 72.38 23.73 66.72 26.07 61.53 26.33 C 61.68 27.56 61.84 28.79 62.01 30.02 C 67.21 33.55 73.82 30.79 78.21 27.24 C 80.28 25.48 83.13 23.19 82.34 20.13 C 81.24 14.03 79.60 7.75 80.91 1.55 M 62.45 22.64 C 66.05 22.59 69.26 20.76 71.59 18.08 C 71.15 17.49 70.28 16.31 69.85 15.72 C 66.71 17.22 64.20 19.64 62.45 22.64 Z" />
<path fill="#bcbcbc" opacity="1.00" d=" M 90.52 1.32 C 91.44 -0.81 93.34 1.11 93.24 2.85 C 94.73 9.53 95.59 16.42 98.24 22.80 C 99.41 26.22 101.81 29.48 101.22 33.27 C 98.93 34.18 96.34 33.23 95.49 30.87 C 91.18 21.82 88.46 11.29 90.52 1.32 Z" />
<path fill="#bcbcbc" opacity="1.00" d=" M 20.16 7.12 C 21.42 5.55 23.52 5.37 25.30 4.80 L 24.31 6.58 C 24.96 6.62 26.24 6.71 26.89 6.75 C 23.55 12.76 17.41 19.82 21.67 26.91 C 26.20 26.51 29.55 23.44 32.05 19.91 C 32.72 18.27 35.14 18.73 35.54 20.28 C 36.82 23.66 38.17 27.59 41.82 29.08 C 44.08 30.49 47.27 29.93 48.80 27.71 C 51.13 24.51 50.97 20.11 49.44 16.60 C 48.42 14.28 46.15 12.91 44.64 10.95 C 44.34 8.15 48.11 7.81 49.85 9.12 C 54.28 12.03 55.20 17.75 56.50 22.49 C 56.16 24.40 55.83 26.30 55.53 28.22 C 52.97 31.11 50.32 34.68 46.11 34.99 C 40.69 35.81 36.58 31.60 32.68 28.57 C 29.51 30.15 26.64 32.64 23.03 33.10 C 18.94 33.54 15.17 30.37 14.31 26.46 C 12.74 19.56 15.38 12.17 20.16 7.12 Z" />
<path fill="#bcbcbc" opacity="1.00" d=" M 151.49 25.53 C 152.72 24.99 154.08 25.34 155.25 25.88 C 157.16 29.92 150.26 34.58 147.45 31.07 C 147.01 28.44 149.28 26.42 151.49 25.53 Z" />
<path fill="#bcbcbc" opacity="1.00" d=" M 105.29 36.27 C 106.27 36.25 107.25 36.23 108.24 36.21 C 109.30 39.25 110.30 42.31 111.01 45.45 C 109.86 45.43 108.72 45.41 107.58 45.39 C 105.57 42.76 104.75 39.55 105.29 36.27 Z" />
<path fill="#bcbcbc" opacity="1.00" d=" M 114.29 45.76 C 113.01 41.16 118.21 38.21 122.00 37.40 C 122.32 38.00 122.96 39.21 123.28 39.81 C 122.28 41.23 121.17 42.58 120.36 44.12 C 121.93 48.06 126.86 49.43 128.61 53.30 C 129.60 55.50 128.43 58.17 126.40 59.31 C 124.52 60.47 122.26 59.70 120.22 59.62 C 120.29 59.13 120.45 58.15 120.52 57.65 C 121.99 56.49 123.45 55.31 124.89 54.09 C 121.52 51.12 117.00 49.43 114.29 45.76 Z" />
<path fill="#bcbcbc" opacity="1.00" d=" M 40.06 42.44 C 40.65 42.45 41.82 42.49 42.41 42.51 C 44.39 45.95 45.86 49.66 47.80 53.13 C 50.71 51.73 54.31 49.68 57.43 51.67 C 61.06 54.23 61.29 59.18 60.90 63.20 C 61.44 63.48 62.53 64.05 63.07 64.34 C 65.28 60.18 65.41 54.47 69.87 51.88 C 72.91 49.89 78.04 52.00 77.49 56.00 C 77.34 60.41 71.87 62.55 71.81 66.73 C 76.07 68.70 81.02 65.43 81.77 61.05 C 82.09 56.81 79.60 52.45 81.35 48.34 C 81.83 46.44 84.01 46.28 85.49 45.54 C 85.85 48.02 85.94 50.53 86.23 53.02 C 86.65 56.06 88.31 58.80 88.65 61.86 C 88.41 63.80 86.41 64.84 85.22 66.21 C 82.21 69.27 78.76 72.92 74.03 72.44 C 70.35 72.47 68.21 69.04 65.06 67.83 C 62.32 67.75 59.60 68.18 56.87 68.28 C 55.58 68.54 54.00 67.29 54.32 65.90 C 54.59 62.49 57.10 58.58 54.54 55.49 C 52.97 53.60 51.35 56.21 50.24 57.34 C 47.66 60.34 51.04 64.52 49.02 67.69 C 47.76 68.06 45.96 68.05 45.49 66.53 C 43.92 61.96 43.15 57.14 41.76 52.50 C 40.83 49.22 40.38 45.83 40.06 42.44 M 71.87 56.33 C 70.71 57.15 70.75 57.89 71.98 58.55 C 73.14 57.72 73.10 56.99 71.87 56.33 Z" />
<path fill="#bcbcbc" opacity="1.00" d=" M 147.40 43.94 C 149.91 39.91 155.79 41.85 157.98 45.24 C 154.92 47.94 149.73 47.25 147.40 43.94 Z" />
<path fill="#bcbcbc" opacity="1.00" d=" M 30.83 41.59 C 34.77 44.85 34.14 51.53 39.69 53.13 C 38.80 54.14 37.91 55.15 37.02 56.16 C 36.80 61.08 38.34 65.92 37.83 70.82 C 37.64 73.03 35.59 73.52 33.76 73.80 C 32.70 68.97 32.96 63.93 31.34 59.20 C 28.24 60.63 25.17 62.37 21.71 62.70 C 24.18 59.20 28.32 57.39 30.79 53.95 C 31.06 49.82 29.27 45.66 30.83 41.59 Z" />
<path fill="#bcbcbc" opacity="1.00" d=" M 97.70 43.67 C 99.80 41.55 103.83 42.87 104.07 45.88 C 105.01 50.33 102.17 54.11 99.75 57.49 C 101.41 61.41 105.71 61.60 109.36 61.92 C 107.48 64.78 103.70 66.19 100.59 64.36 C 96.43 61.65 95.03 56.47 93.55 52.03 C 94.58 49.11 95.63 46.03 97.70 43.67 M 99.97 48.22 C 98.75 48.95 98.74 49.68 99.94 50.43 C 101.16 49.67 101.17 48.93 99.97 48.22 Z" />
<path fill="#bcbcbc" opacity="1.00" d=" M 147.18 56.32 C 151.60 56.04 156.26 58.81 156.94 63.44 C 152.40 64.92 146.93 61.22 147.18 56.32 Z" />
<path fill="#bcbcbc" opacity="1.00" d=" M 95.97 82.18 C 97.21 82.53 98.97 81.85 99.93 82.91 C 99.13 84.05 97.98 84.91 97.24 86.12 C 96.90 88.34 96.88 90.60 96.66 92.85 C 96.02 92.77 94.75 92.63 94.11 92.55 C 93.65 91.05 93.13 89.56 92.86 88.01 C 92.94 85.70 94.73 83.97 95.97 82.18 Z" />
<path fill="#bcbcbc" opacity="1.00" d=" M 63.95 84.92 C 67.76 83.19 72.49 84.38 74.85 87.88 C 75.44 90.41 74.86 93.08 72.70 94.67 C 69.72 98.14 64.93 98.40 60.70 98.28 C 60.31 102.40 59.07 106.87 55.45 109.32 C 49.45 113.54 40.77 114.63 34.33 110.82 C 32.38 109.82 32.64 107.44 32.26 105.63 C 36.45 106.71 40.57 108.72 45.01 108.09 C 49.20 107.86 54.77 105.91 55.27 101.08 C 54.57 96.75 50.78 93.94 47.66 91.27 C 44.80 94.83 42.55 100.58 37.04 100.11 C 30.09 99.91 28.44 88.50 35.37 86.69 C 35.41 89.53 34.79 92.44 35.72 95.21 C 36.54 95.18 38.17 95.11 38.99 95.08 C 41.10 92.51 42.20 89.39 43.48 86.38 C 44.02 84.90 45.42 84.17 46.89 84.92 C 50.47 86.94 53.22 90.13 56.48 92.59 C 58.01 89.29 60.14 85.82 63.95 84.92 M 62.53 91.92 C 64.49 96.35 68.97 92.28 70.76 89.82 C 67.83 88.33 64.34 89.13 62.53 91.92 Z" />
<path fill="#bcbcbc" opacity="1.00" d=" M 85.52 85.19 C 87.89 84.53 90.65 86.26 90.27 88.88 C 89.43 92.01 87.12 95.21 83.79 95.93 C 81.20 96.32 79.01 94.38 77.56 92.47 C 76.89 90.89 77.48 89.07 77.46 87.40 C 78.72 87.18 80.07 86.37 81.30 87.17 C 81.92 88.64 82.40 90.17 82.93 91.67 C 83.42 91.22 84.41 90.31 84.90 89.85 C 85.06 88.29 85.18 86.72 85.52 85.19 Z" />
<path fill="#bcbcbc" opacity="1.00" d=" M 111.82 115.86 C 115.18 114.30 118.81 113.35 122.37 112.32 L 122.34 113.60 C 122.86 113.68 123.90 113.85 124.42 113.93 C 121.60 117.44 117.28 118.91 113.42 120.89 C 112.62 126.16 112.60 131.59 114.06 136.76 C 115.37 138.44 116.55 140.67 118.91 140.97 C 124.02 141.86 128.89 139.35 133.97 139.23 C 130.07 146.38 119.50 149.60 113.02 143.99 C 107.98 139.45 108.81 132.07 108.97 125.96 C 109.43 122.56 108.94 118.33 111.82 115.86 Z" />
<path fill="#bcbcbc" opacity="1.00" d=" M 155.49 115.46 C 156.29 113.19 158.98 111.29 161.31 112.67 C 163.68 114.19 164.48 117.15 165.23 119.70 C 167.42 129.40 167.93 139.72 165.22 149.35 C 164.20 152.39 159.68 151.21 160.25 148.07 C 161.38 139.24 163.17 130.12 160.57 121.37 C 160.20 120.76 159.45 119.54 159.08 118.92 C 158.56 120.41 158.07 121.92 157.60 123.43 C 156.16 127.75 155.53 132.39 153.43 136.47 C 152.32 138.75 149.60 138.94 147.45 139.46 C 145.38 142.69 144.41 148.66 139.38 147.80 C 139.92 143.79 141.91 140.10 142.04 136.03 C 142.19 133.00 142.22 129.96 141.93 126.94 C 141.63 123.55 139.88 120.07 141.81 116.84 C 146.17 119.92 146.56 125.69 148.52 130.25 C 149.02 130.29 150.01 130.36 150.50 130.39 C 152.03 125.38 153.44 120.29 155.49 115.46 Z" />
<path fill="#bcbcbc" opacity="1.00" d=" M 71.15 117.03 C 76.22 113.43 85.72 115.35 86.97 122.08 C 87.33 124.46 86.35 126.74 86.01 129.06 C 88.20 130.29 90.69 130.84 93.12 131.33 C 95.22 125.83 94.66 119.67 97.21 114.27 C 98.29 115.59 99.29 117.11 99.11 118.91 C 99.16 127.28 98.82 135.65 99.13 144.02 C 99.29 145.95 99.73 148.40 101.76 149.22 C 105.15 150.44 108.97 149.29 112.31 150.74 C 113.51 151.91 112.91 153.97 111.32 154.43 C 105.49 156.23 99.08 154.94 94.06 151.57 C 89.71 153.70 84.54 156.65 79.68 154.26 C 77.21 151.83 76.36 148.25 75.00 145.15 C 73.36 150.44 69.95 155.61 64.47 157.45 C 57.85 159.87 50.03 155.62 48.10 148.91 C 45.37 142.56 49.52 134.82 56.01 132.92 C 61.70 130.63 68.03 132.86 72.59 136.52 C 72.77 137.01 73.13 138.00 73.32 138.50 C 73.36 131.27 71.01 124.25 71.15 117.03 M 73.86 119.17 C 74.31 122.89 75.48 126.60 77.45 129.81 C 79.47 128.21 81.34 126.45 83.15 124.63 C 83.16 123.42 83.16 122.21 83.17 121.00 C 80.53 119.29 76.66 115.98 73.86 119.17 M 77.55 134.27 C 78.49 139.81 79.79 145.32 81.95 150.52 C 85.78 149.58 90.17 148.58 92.48 145.05 C 93.59 142.66 92.77 140.05 92.58 137.57 C 88.49 133.80 82.74 133.93 77.55 134.27 M 51.91 142.09 C 52.49 146.95 55.17 151.82 60.24 153.05 C 64.15 152.31 67.90 149.10 68.43 144.99 C 68.90 141.42 65.67 137.94 62.07 138.14 C 58.20 137.70 54.95 140.07 51.91 142.09 Z" />
<path fill="#bcbcbc" opacity="1.00" d=" M 8.05 119.10 C 16.01 115.45 26.20 119.79 29.44 127.81 C 30.77 131.72 30.43 136.41 27.72 139.67 C 25.01 143.35 20.55 144.93 16.58 146.82 C 17.07 154.60 23.21 161.36 21.53 169.31 C 19.90 168.88 17.85 168.71 17.32 166.78 C 12.01 153.57 9.12 139.52 4.11 126.21 C 2.98 127.60 1.85 128.98 0.66 130.32 C -0.78 125.05 3.58 120.85 8.05 119.10 M 8.46 122.25 C 9.24 128.30 12.23 133.72 13.63 139.62 C 17.08 139.12 20.10 137.36 23.13 135.76 C 24.44 133.39 25.57 130.48 24.07 127.91 C 21.35 122.18 14.12 120.81 8.46 122.25 Z" />
<path fill="#bcbcbc" opacity="1.00" d=" M 119.94 130.50 C 120.60 130.56 121.92 130.68 122.58 130.74 C 120.54 132.12 118.37 133.30 116.11 134.29 C 116.27 133.74 116.58 132.66 116.74 132.11 C 117.81 131.58 118.88 131.05 119.94 130.50 Z" />
<path fill="#bcbcbc" opacity="1.00" d=" M 25.85 151.96 C 27.08 145.83 34.97 139.23 40.78 144.28 C 44.88 148.20 40.43 153.26 38.34 156.94 C 41.33 159.66 45.86 161.30 46.51 165.82 C 42.03 166.27 38.38 163.42 34.75 161.28 C 34.47 163.68 34.14 166.18 32.18 167.85 C 27.76 163.87 26.58 157.58 25.85 151.96 M 31.14 148.05 C 28.62 149.65 30.34 152.66 32.10 154.07 C 35.17 153.04 37.44 150.58 38.88 147.75 C 36.69 145.24 33.19 145.55 31.14 148.05 Z" />
<path fill="#bcbcbc" opacity="1.00" d=" M 107.89 162.38 C 127.58 160.70 147.29 159.23 167.04 158.75 C 171.16 158.68 175.84 157.05 179.62 159.27 C 181.72 160.89 179.68 162.65 177.79 162.82 C 172.41 163.42 166.97 162.76 161.58 163.36 C 153.49 164.30 145.30 163.62 137.23 164.71 C 111.12 166.03 85.14 169.10 59.24 172.58 C 50.63 174.11 42.01 175.63 33.50 177.63 C 28.69 178.78 23.99 180.76 18.95 180.57 C 19.44 179.29 19.53 177.51 21.25 177.34 C 49.22 168.10 78.78 165.61 107.89 162.38 Z" />
</g>
</svg>
